X: 18685
T: I'm Going To Speke
R: jig
M: 6/8
K: Dmajor
c|:dfd ecA|BdB AGE|DED FDG|~A3 B2c|
dfd ecA|BdB AGE|DED FDG|1 AGE D2c:|2 AGE D2A||
K: Bmin
|:BFA BFA|Bde fed|BFA BFA|cBA FAc|
BFA BFA|Bde fed|B2B cBA|1 FAc B2A:|2 FAc B2c||

